Rowaita/24x24/actions/insert-link.svg

<?xml version='1.0' encoding='ASCII' standalone='yes'?>
<svg xmlns="http://www.w3.org/2000/svg" xmlns:xlink="http://www.w3.org/1999/xlink" version="1.1" width="24px" height="24px">
  <g transform="translate(4.0, 4.0) scale(1 1) ">
    <sodipodi:namedview xmlns:sodipodi="http://sodipodi.sourceforge.net/DTD/sodipodi-0.dtd" xmlns:inkscape="http://www.inkscape.org/namespaces/inkscape" id="namedview9" pagecolor="#ffffff" bordercolor="#000000" borderopacity="0.25" inkscape:showpageshadow="2" inkscape:pageopacity="0.0" inkscape:pagecheckerboard="0" inkscape:deskcolor="#d1d1d1" showgrid="false" inkscape:zoom="16.046875" inkscape:cx="-4.1129503" inkscape:cy="15.298929" inkscape:current-layer="svg7"/>
    <defs id="defs3">
      <style id="current-color-scheme" type="text/css">
   .ColorScheme-Text { color:#444444; } .ColorScheme-Highlight { color:#4285f4; }
  </style>
    </defs>
    <g id="g314" style="fill:#444444;fill-opacity:1">
      <path style="fill:#444444;fill-opacity:1" d="m 5,4 v 2 h 6 V 4 Z" id="path307"/>
      <path style="fill:#444444;fill-opacity:1" d="m 9,0 v 2 h 2 c 1.662,0 3,1.338 3,3 0,1.662 -1.338,3 -3,3 H 9 v 2 h 2 c 2.77,0 5,-2.23 5,-5 0,-2.77 -2.23,-5 -5,-5 z" id="path305"/>
      <path style="fill:#444444;fill-opacity:1" d="M 5,0 C 2.23,0 0,2.23 0,5 0,7.77 2.23,10 5,10 H 7 V 8 H 5 C 3.338,8 2,6.662 2,5 2,3.338 3.338,2 5,2 H 7 V 0 Z" id="path5"/>
    </g>
    <path d="m 5.000008,12 v 1 h 0.0078 c -0.0039,0.265625 0.101563,0.519531 0.285157,0.707031 l 2,2 c 0.390625,0.390625 1.023437,0.390625 1.414062,0 l 2,-2 C 10.890623,13.519531 10.996092,13.265625 10.996092,13 h 0.0039 v -1 z m 0,0" id="path4" style="fill:#444444;fill-opacity:1"/>
  </g>
</svg>

<svg xmlns="http://www.w3.org/2000/svg" width="24" height="24" viewBox="0 0 24 24">
 <defs>
  <style id="current-color-scheme" type="text/css">
   .ColorScheme-Text { color:#444444; } .ColorScheme-Highlight { color:#4285f4; }
  </style>
 </defs>
 <path style="fill:currentColor" class="ColorScheme-Text" d="M 5 0 C 2.23 0 0 2.23 0 5 C 0 7.77 2.23 10 5 10 L 7 10 L 7 8 L 5 8 C 3.338 8 2 6.662 2 5 C 2 3.338 3.338 2 5 2 L 7 2 L 7 0 L 5 0 z M 9 0 L 9 2 L 11 2 C 12.662 2 14 3.338 14 5 C 14 6.662 12.662 8 11 8 L 9 8 L 9 10 L 11 10 C 13.77 10 16 7.77 16 5 C 16 2.23 13.77 0 11 0 L 9 0 z M 5 4 L 5 6 L 11 6 L 11 4 L 5 4 z M 5 12.011719 L 8 16.011719 L 11 12.011719 L 5 12.011719 z" transform="translate(4 4)"/>
</svg>
